X:138
T:I'm Waiting for You (reel) 
B:CRE2.176 (Ag Fanacht Leat AtÃÂÃÂÃÂÃÂ¡ MÃÂÃÂÃÂÃÂ©)
F:file ID: cre.2/138im_wait
R:reel % A-B-A
M:C
Q:180
K:G
(3DEF|G2dG BGdG|AGFG ABcA|BAGF GABc|defd cAFA|
BGG2 dGBG|FGAB cAFA|(3Bcd GB cBAG|1 FDEF G2:|\
[2 FDEF G2||
|:Bd|g2fg edBG|(3FED AD BDAF|E2EF GFGA|(3Bcd ced2 ef|
gfed ecAG|(3FED AD BDAF|G2FE DGBd|1 cAFA G2:|\
[2 cAFA GDEF||

%%%

